X:368
T: Taiyang chushangang
N: C1869
O: China,ÿGuizhou Zunyi
S: II, 111]
R: Haozi, Haoyang haozi. Yangtian laodong]
M: 2/4
L: 1/16
K: F
d2d2dec2 | d4c2c2B2G2 | c3dB2c2 | c2BGG4 |
c3BB2c2 | BBc2d6c2
Bcd2dcB2 | Bcd2dcB2 | c4cBG2G4
G2BcB4 | G2GFG4 |
G2BcB4 | G2GFG4 |
AcAcd4 | dcB2GBG2 |
c3AG2Ac | A8 |
GAc2c2A2 | GAF2G8

